svg/right_squared.svg

<svg xmlns="http://www.w3.org/2000/svg" viewBox="0 0 32 32" enable-background="new 0 0 32 32"><path d="M 5 5 L 5 6 L 5 26 L 5 27 L 6 27 L 26 27 L 27 27 L 27 26 L 27 6 L 27 5 L 26 5 L 6 5 L 5 5 z M 7 7 L 25 7 L 25 25 L 7 25 L 7 7 z M 14.21875 9.28125 L 12.78125 10.71875 L 18.0625 16 L 12.78125 21.28125 L 14.21875 22.71875 L 20.21875 16.71875 L 20.90625 16 L 20.21875 15.28125 L 14.21875 9.28125 z" color="#000" overflow="visible" enable-background="accumulate"/></svg>

<svg xmlns="http://www.w3.org/2000/svg" viewBox="0 0 32 32"><path d="M5 5v22h22V5H5zm2 2h18v18H7V7zm7.22 2.28l-1.44 1.44L18.064 16l-5.282 5.28 1.44 1.44 6-6 .686-.72-.687-.72-6-6z"/></svg>
